Origami/24x24/apps/adventure-capitalist.svg

<svg width="24" height="24" version="1.1" xmlns="http://www.w3.org/2000/svg">
 <path d="m9 3.478636 0.083008 0.00196s-1.371085-0.1007791-2.8427735 0.4306641c-0.7358445 0.2657147-1.5451827 0.7083667-2.1875001 1.4755792-0.6423175 0.7672125-1.0527344 1.854297-1.0527344 3.091797s0.4104169 2.3245847 1.0527344 3.0917967c0.6423175 0.767213 1.4516556 1.209864 2.1875001 1.475586 1.4716885 0.531443 2.8427735 0.430664 2.8427735 0.430664l-0.083008 0.001953h6a1.50015 1.50015 0 0 0 0.08301 -0.0019s0.878915-0.02422 1.657226 0.256836c0.389156 0.140528 0.704818 0.338502 0.90625 0.579102 0.201431 0.240547 0.353514 0.528462 0.353514 1.165962s-0.152083 0.925416-0.353516 1.166016c-0.201432 0.2406-0.517094 0.438573-0.90625 0.579101-0.778311 0.281057-1.657226 0.256836-1.657226 0.256836a1.50015 1.50015 0 0 0 -0.083008 -0.001953h-8.5a1.50015 1.50015 0 1 0 0 3h8.5l-0.08301-2e-3s1.371085 0.100779 2.842773-0.430664c0.735845-0.265722 1.545183-0.708373 2.1875-1.475586 0.64232-0.767165 1.052737-1.85425 1.052737-3.09175s-0.410417-2.324584-1.052735-3.091797c-0.642317-0.767212-1.451655-1.209864-2.1875-1.475586-1.471688-0.531443-2.842773-0.430664-2.842773-0.430664l0.08301-2e-3h-6a1.50015 1.50015 0 0 0 -0.083008 2e-3s-0.878915 0.02422-1.6572265-0.256836c-0.3891575-0.140531-0.7048195-0.3385042-0.906252-0.5791042-0.2014325-0.240597-0.3535155-0.5285125-0.3535155-1.1660125s0.152083-0.9254155 0.3535155-1.1660155 0.5170945-0.4385735 0.90625-0.5791015c0.7783115-0.281057 1.6572265-0.256836 1.6572265-0.256836a1.50015 1.50015 0 0 0 0.083008 0.001953h8.5a1.50015 1.50015 0 1 0 0 -3.0000003h-8.5z" style="opacity:.2"/>
 <path d="m12.477693 1.4571516a1.50015 1.50015 0 0 0 -1.477539 1.5214844v17 1a1.50015 1.50015 0 1 0 3 0v-1-17a1.50015 1.50015 0 0 0 -1.522461 -1.5214844z" style="fill-rule:evenodd;opacity:.2"/>
 <path d="m6.5 18.4785h8.5s4.5 0.25 4.5-3.5-4.5-3.5-4.5-3.5h-6s-4.5 0.25-4.5-3.5000002c0-3.75 4.5-3.5 4.5-3.5h8.5" style="fill:none;stroke-linecap:round;stroke-linejoin:round;stroke-width:3;stroke:#ffc73a"/>
 <path d="m8.845703 2.9726404c-0.454603-0.0034327-1.501702 0.0398942-2.6054685 0.4384766-0.7358445 0.2657197-1.5451827 0.7083735-2.1875001 1.4755858-0.6423176 0.7672125-1.0527344 1.854297-1.0527344 3.091797 0 0.08461 0.00599 0.1668505 0.00977 0.25 0.051507-1.13299 0.4445678-2.12704 1.0429689-2.841797 0.6423129-0.7672125 1.4516511-1.2098661 2.1874956-1.4755858 1.343011-0.4849764 2.5498305-0.4435858 2.7597655-0.4326172h8.5a1.50015 1.50015 0 0 1 1.499023 1.253906 1.50015 1.50015 0 0 0 -1.499023 -1.753906h-8.4765625c-0.031285-0.00183-0.064239-5e-3 -0.1777345-0.00586zm-2.8291015 5.2558594c-0.006488 0.080865-0.0166015 0.1544445-0.0166015 0.25 0 0.6375 0.152083 0.9254185 0.3535155 1.1660155 0.2014325 0.2406 0.5170945 0.4385737 0.90625 0.5791017 0.7783115 0.281056 1.6572265 0.256836 1.6572265 0.256836a1.50015 1.50015 0 0 1 0.083008 -0.001953h5.984375c0.174895-0.0099 1.408174-0.0611 2.77539 0.432617 0.735845 0.265722 1.545183 0.708373 2.1875 1.475586 0.598401 0.714757 0.991462 1.708807 1.042969 2.841797 0.00378-0.08315 0.009766-0.16539 0.009766-0.25 0-1.2375-0.410417-2.324585-1.052735-3.091797-0.642317-0.767213-1.451655-1.209864-2.1875-1.475586-1.379329-0.4980912-2.626602-0.4417667-2.783202-0.4326172h-5.976563a1.50015 1.50015 0 0 0 -0.083008 0.00195s-0.878915 0.02422-1.6572265-0.256836c-0.3891555-0.140528-0.7048175-0.3385015-0.90625-0.5791015-0.1712395-0.2045305-0.300118-0.4573855-0.336914-0.9160125zm11.966796 7.0000002c-0.0368 0.458627-0.165674 0.711479-0.336914 0.916015-0.201432 0.2406-0.517094 0.438574-0.90625 0.579102-0.778311 0.281057-1.657226 0.256836-1.657226 0.256836a1.50015 1.50015 0 0 0 -0.083008 -0.001953h-8.5a1.50015 1.50015 0 0 0 -1.4990235 1.746094 1.50015 1.50015 0 0 1 1.4990235 -1.246094h8.5a1.50015 1.50015 0 0 1 0.08301 2e-3s0.878915 0.02422 1.657226-0.256836c0.389156-0.140528 0.704818-0.338502 0.90625-0.579102 0.201431-0.240647 0.353514-0.528562 0.353514-1.166062 0-0.09556-0.01011-0.169135-0.0166-0.25z" style="fill:#ffffff;opacity:.2"/>
 <path d="m12.500154 2.4784998v17 1" style="fill:none;stroke-linecap:round;stroke-linejoin:round;stroke-width:3;stroke:#ffc73a"/>
 <path d="m12.477693 0.95701537a1.50015 1.50015 0 0 0 -1.477539 1.5214844v0.5a1.50015 1.50015 0 0 1 1.477539 -1.5214844 1.50015 1.50015 0 0 1 1.522461 1.5214844v-0.5a1.50015 1.50015 0 0 0 -1.522461 -1.5214844z" style="fill-rule:evenodd;fill:#ffffff;opacity:.2"/>
</svg>

<svg xmlns="http://www.w3.org/2000/svg" width="24" height="24" version="1.1">
 <path style="opacity:0.2" d="m 9,3.478636 0.083008,0.00196 c 0,0 -1.371085,-0.1007791 -2.8427735,0.4306641 C 5.50439,4.1769748 4.6950518,4.6196268 4.0527344,5.3868393 3.4104169,6.1540518 3,7.2411363 3,8.4786363 c 0,1.2375 0.4104169,2.3245847 1.0527344,3.0917967 0.6423175,0.767213 1.4516556,1.209864 2.1875001,1.475586 1.4716885,0.531443 2.8427735,0.430664 2.8427735,0.430664 L 9,13.478636 l 6,0 a 1.50015,1.50015 0 0 0 0.08301,-0.0019 c 0,0 0.878915,-0.02422 1.657226,0.256836 0.389156,0.140528 0.704818,0.338502 0.90625,0.579102 C 17.847917,14.553221 18,14.841136 18,15.478636 c 0,0.6375 -0.152083,0.925416 -0.353516,1.166016 -0.201432,0.2406 -0.517094,0.438573 -0.90625,0.579101 -0.778311,0.281057 -1.657226,0.256836 -1.657226,0.256836 A 1.50015,1.50015 0 0 0 15,17.478636 l -8.5,0 a 1.50015,1.50015 0 1 0 0,3 l 8.5,0 -0.08301,-0.002 c 0,0 1.371085,0.100779 2.842773,-0.430664 0.735845,-0.265722 1.545183,-0.708373 2.1875,-1.475586 C 20.589583,17.803221 21,16.716136 21,15.478636 c 0,-1.2375 -0.410417,-2.324584 -1.052735,-3.091797 -0.642317,-0.767212 -1.451655,-1.209864 -2.1875,-1.475586 -1.471688,-0.531443 -2.842773,-0.430664 -2.842773,-0.430664 l 0.08301,-0.002 -6,0 a 1.50015,1.50015 0 0 0 -0.083008,0.002 c 0,0 -0.878915,0.02422 -1.6572265,-0.256836 C 6.87061,10.083222 6.554948,9.8852488 6.3535155,9.6446488 6.152083,9.4040518 6,9.1161363 6,8.4786363 6,7.8411363 6.152083,7.5532208 6.3535155,7.3126208 6.554948,7.0720208 6.87061,6.8740473 7.2597655,6.7335193 8.038077,6.4524623 8.916992,6.4766833 8.916992,6.4766833 A 1.50015,1.50015 0 0 0 9,6.4786363 l 8.5,0 a 1.50015,1.50015 0 1 0 0,-3.0000003 l -8.5,0 z"/>
 <path style="opacity:0.2;fill-rule:evenodd" d="M 12.477693,1.4571516 A 1.50015,1.50015 0 0 0 11.000154,2.978636 l 0,17 0,1 a 1.50015,1.50015 0 1 0 3,0 l 0,-1 0,-17 A 1.50015,1.50015 0 0 0 12.477693,1.4571516 Z"/>
 <path style="fill:none;stroke:#ffc73a;stroke-width:3;stroke-linecap:round;stroke-linejoin:round" d="m 6.5,18.4785 8.5,0 c 0,0 4.5,0.25 4.5,-3.5 0,-3.75 -4.5,-3.5 -4.5,-3.5 l -6,0 c 0,0 -4.5,0.25 -4.5,-3.5000002 0,-3.75 4.5,-3.5 4.5,-3.5 l 8.5,0"/>
 <path style="opacity:0.2;fill:#ffffff" d="M 8.845703,2.9726404 C 8.3911,2.9692077 7.344001,3.0125346 6.2402345,3.411117 5.50439,3.6768367 4.6950518,4.1194905 4.0527344,4.8867028 3.4104168,5.6539153 3,6.7409998 3,7.9784998 c 0,0.08461 0.00599,0.1668505 0.00977,0.25 0.051507,-1.13299 0.4445678,-2.12704 1.0429689,-2.841797 C 4.6950518,4.6194903 5.50439,4.1768367 6.2402345,3.911117 7.5832455,3.4261406 8.790065,3.4675312 9,3.4784998 l 8.5,0 A 1.50015,1.50015 0 0 1 18.999023,4.7324058 1.50015,1.50015 0 0 0 17.5,2.9784998 l -8.4765625,0 c -0.031285,-0.00183 -0.064239,-0.005 -0.1777345,-0.00586 z M 6.0166015,8.2284998 C 6.0101135,8.3093648 6,8.3829443 6,8.4784998 c 0,0.6375 0.152083,0.9254185 0.3535155,1.1660155 0.2014325,0.2406 0.5170945,0.4385737 0.90625,0.5791017 0.7783115,0.281056 1.6572265,0.256836 1.6572265,0.256836 A 1.50015,1.50015 0 0 1 9,10.4785 l 5.984375,0 c 0.174895,-0.0099 1.408174,-0.0611 2.77539,0.432617 0.735845,0.265722 1.545183,0.708373 2.1875,1.475586 0.598401,0.714757 0.991462,1.708807 1.042969,2.841797 C 20.994014,15.14535 21,15.06311 21,14.9785 21,13.741 20.589583,12.653915 19.947265,11.886703 19.304948,11.11949 18.49561,10.676839 17.759765,10.411117 16.380436,9.9130258 15.133163,9.9693503 14.976563,9.9784998 l -5.976563,0 a 1.50015,1.50015 0 0 0 -0.083008,0.00195 c 0,0 -0.878915,0.02422 -1.6572265,-0.256836 C 6.87061,9.5830858 6.554948,9.3851123 6.3535155,9.1445123 6.182276,8.9399818 6.0533975,8.6871268 6.0166015,8.2284998 Z M 17.983398,15.2285 c -0.0368,0.458627 -0.165674,0.711479 -0.336914,0.916015 -0.201432,0.2406 -0.517094,0.438574 -0.90625,0.579102 -0.778311,0.281057 -1.657226,0.256836 -1.657226,0.256836 A 1.50015,1.50015 0 0 0 15,16.9785 l -8.5,0 A 1.50015,1.50015 0 0 0 5.0009765,18.724594 1.50015,1.50015 0 0 1 6.5,17.4785 l 8.5,0 a 1.50015,1.50015 0 0 1 0.08301,0.002 c 0,0 0.878915,0.02422 1.657226,-0.256836 0.389156,-0.140528 0.704818,-0.338502 0.90625,-0.579102 C 17.847917,16.403915 18,16.116 18,15.4785 c 0,-0.09556 -0.01011,-0.169135 -0.0166,-0.25 z"/>
 <path style="fill:none;stroke:#ffc73a;stroke-width:3;stroke-linecap:round;stroke-linejoin:round" d="m 12.500154,2.4784998 0,17.0000002 0,1"/>
 <path style="opacity:0.2;fill:#ffffff;fill-rule:evenodd" d="M 12.477693,0.95701537 A 1.50015,1.50015 0 0 0 11.000154,2.4784998 l 0,0.5 a 1.50015,1.50015 0 0 1 1.477539,-1.5214844 1.50015,1.50015 0 0 1 1.522461,1.5214844 l 0,-0.5 A 1.50015,1.50015 0 0 0 12.477693,0.95701537 Z"/>
</svg>
